X:35
T:Juliana. JClw.35
M:6/8
L:1/8
Q:3/8=120
S:J.Clews MS,Stoke-upon-Tern,Shrops.1832
A:N. Shropshire
Z:Neil Brookes 2006
K:D
F/G/|ABA d2f|fec dfg|a2b agf|gfg e2A|!
ABA d2f|fec dfa|gd'b afd|gecd2:|!
c/d/|:\
e2a bag|fag fed|eaa aga|faf dfa|!
bgd' d'bg|afd' d'af|bge afd|cde ABc::!
{de}f2e{ef}g2f|fed B2d|A2de2f|agf efg|!
{de}f2e{ef}g2f|fed B2d|A2fe2f|e3d3:|

